images/wordmark.svg

<svg xmlns="http://www.w3.org/2000/svg" viewBox="0 0 674.26 152.12"><defs><style>.cls-1,.cls-2{fill:#a6d531;}.cls-2{font-size:129.89px;font-family:Bauhaus Std;letter-spacing:-3px;}</style></defs><title>wordmark</title><path class="cls-1" d="M28.23 30.83a17.75 17.75 0 0 1 17.44-17.83l5.09-.16c9.67 0 17.54 8.27 17.57 17.93l.1 26.38h15.06l-.1-26.22a30.88 30.88 0 0 0-30.75-30.82l-8.92-.11c-16.92.07-30.58 14.33-30.51 31.25l.1 25.87h15zm14.17 63.53c0 2.68.71 4.42 3.37 5.23.31.11 1.23.31 1.23.59v-11.71c0 .24-2.67.83-3.63 1.78s-.88 2.31-.97 4.11zm10.04 16.19a2.49 2.49 0 0 0 .76-.18 2 2 0 0 1 .8-.15v13.1c1-.66 4.81-2.94 4.81-6.84 0-2.82-2.97-4.79-6.37-5.93zm28.26-27.43h17.3v-5.22c0-8.28-7-13.78-15.24-13.78h-68.76c-8.28 0-14 5.5-14 13.78v5.22h16.11c1.14 0 2.06.36 2.06 1.5s-.92 1.5-2.06 1.5h-16.11v4h9.24a2 2 0 1 1 0 4h-9.24v41.2c0 8.28 5.74 16.8 14 16.8h68.76c8.28 0 15.24-8.52 15.24-16.8v-41.2h-10.43a2 2 0 1 1 0-4h10.43v-4h-17.3c-1.14 0-2.06-.36-2.06-1.5s.92-1.5 2.06-1.5zm-16.88 43.29c-2.7 2.43-8.82 3.86-9.82 4.28v7.44h-5.77l-.07-6.81a30.89 30.89 0 0 1-15.16-4.32l1.56-7.2a31.46 31.46 0 0 0 12.44 3.71v-14.28c0-.77-3.8-1.34-4.72-1.71-6.47-2.28-9.4-6.54-9.4-12.77 0-4.06.9-7.26 3.62-9.61s7.5-3.67 10.5-4v-6h7v6a28.27 28.27 0 0 1 12.51 3.59l-2.06 6.47a46.13 46.13 0 0 0-10.45-2.87v12.93c0 .07-.83.15-.48.26a5.44 5.44 0 0 0 .53.36 2.86 2.86 0 0 1 .55.26c4.41 1.45 7.4 3.25 9.3 5.4a13.35 13.35 0 0 1 3.4 9c.01 4.14-.79 7.46-3.48 9.87z"/><text class="cls-2" transform="translate(109.61 125.95)">FundFriend</text></svg>

<svg id="Layer_1" data-name="Layer 1" xmlns="http://www.w3.org/2000/svg" viewBox="0 0 674.26 152.12"><defs><style>.cls-1,.cls-2{fill:#a6d531;}.cls-2{font-size:129.89px;font-family:Bauhaus Std;letter-spacing:-3px;}</style></defs><title>wordmark</title><path class="cls-1" d="M28.23,30.83A17.75,17.75,0,0,1,45.67,13l5.09-.16c9.67,0,17.54,8.27,17.57,17.93l0.1,26.38H83.49l-0.1-26.22A30.88,30.88,0,0,0,52.64.11L43.72,0C26.8,0.07,13.14,14.33,13.21,31.25l0.1,25.87h15Z"/><path class="cls-1" d="M42.4,94.36c0,2.68.71,4.42,3.37,5.23,0.31,0.11,1.23.31,1.23,0.59V88.47c0,0.24-2.67.83-3.63,1.78S42.49,92.56,42.4,94.36Z"/><path class="cls-1" d="M52.44,110.55a2.49,2.49,0,0,0,.76-0.18,2,2,0,0,1,.8-0.15v13.1c1-.66,4.81-2.94,4.81-6.84C58.81,113.66,55.84,111.69,52.44,110.55Z"/><path class="cls-1" d="M80.7,83.12H98V77.9c0-8.28-7-13.78-15.24-13.78H14c-8.28,0-14,5.5-14,13.78v5.22H16.11c1.14,0,2.06.36,2.06,1.5s-0.92,1.5-2.06,1.5H0v4H9.24a2,2,0,1,1,0,4H0v41.2c0,8.28,5.74,16.8,14,16.8H82.76c8.28,0,15.24-8.52,15.24-16.8V94.12H87.57a2,2,0,1,1,0-4H98v-4H80.7c-1.14,0-2.06-.36-2.06-1.5S79.56,83.12,80.7,83.12ZM63.82,126.41c-2.7,2.43-8.82,3.86-9.82,4.28v7.44H48.23l-0.07-6.81A30.89,30.89,0,0,1,33,127l1.56-7.2A31.46,31.46,0,0,0,47,123.51V109.23c0-.77-3.8-1.34-4.72-1.71-6.47-2.28-9.4-6.54-9.4-12.77,0-4.06.9-7.26,3.62-9.61s7.5-3.67,10.5-4v-6h7v6a28.27,28.27,0,0,1,12.51,3.59L64.45,91.2A46.13,46.13,0,0,0,54,88.33v12.93c0,0.07-.83.15-0.48,0.26a5.44,5.44,0,0,0,.53.36,2.86,2.86,0,0,1,.55.26c4.41,1.45,7.4,3.25,9.3,5.4a13.35,13.35,0,0,1,3.4,9C67.31,120.68,66.51,124,63.82,126.41Z"/><text class="cls-2" transform="translate(109.61 125.95)">FundFriend</text></svg>
